usr/share/icons/biglinux-icons-material/scalable/apps/brackets.svg

<svg width="24" height="24" viewBox="0 0 24 24" fill="none" xmlns="http://www.w3.org/2000/svg">
<path fill-rule="evenodd" clip-rule="evenodd" d="M9.59604 1.11359C9.71588 1.11486 9.83043 1.0996 9.93969 1.06779C11.3755 0.973736 12.8111 0.977551 14.2467 1.07924C15.5484 1.18066 16.8085 1.46308 18.0269 1.9265C20.0525 2.76044 21.4386 4.20689 22.185 6.26585C22.6119 7.50549 22.8639 8.78021 22.9411 10.09C23.0478 11.7347 23.0096 13.3758 22.8265 15.0133C22.6895 16.1642 22.3916 17.271 21.933 18.3336C21.0824 20.1761 19.704 21.447 17.7978 22.1463C16.2531 22.6682 14.6647 22.943 13.0325 22.9706C11.1966 23.0661 9.37913 22.9287 7.57997 22.5585C4.26839 21.8208 2.22559 19.8018 1.45158 16.5017C1.12311 15.0161 0.974199 13.5124 1.00483 11.9906C0.968176 10.3724 1.14 8.77709 1.52031 7.20471C2.33171 4.11908 4.2905 2.20701 7.39669 1.46852C8.12048 1.29157 8.8536 1.17326 9.59604 1.11359Z" fill="url(#paint0_radial_1_130)"/>
<path fill-rule="evenodd" clip-rule="evenodd" d="M10.3143 3.05546C10.2249 3.08149 10.1312 3.09398 10.0331 3.09294C9.42567 3.14176 8.82585 3.23856 8.23366 3.38334C5.69223 3.98755 4.08958 5.55197 3.4257 8.07658C3.11454 9.36307 2.97396 10.6683 3.00395 11.9923C2.97889 13.2374 3.10073 14.4678 3.36947 15.6832C4.00275 18.3833 5.67414 20.0352 8.38361 20.6387C9.85565 20.9417 11.3427 21.0541 12.8448 20.976C14.1802 20.9534 15.4798 20.7285 16.7436 20.3015C18.3033 19.7293 19.4311 18.6895 20.127 17.182C20.5023 16.3126 20.7459 15.407 20.858 14.4654C21.0079 13.1257 21.0391 11.783 20.9518 10.4373C20.8887 9.36562 20.6825 8.32267 20.3332 7.30843C19.7225 5.62382 18.5884 4.44036 16.9311 3.75805C15.9342 3.37889 14.9033 3.14781 13.8382 3.06483C12.6637 2.98163 11.489 2.97851 10.3143 3.05546Z" fill="url(#paint1_linear_1_130)"/>
<path d="M7 6C6.44772 6 6 6.44772 6 7V17C6 17.5523 6.44772 18 7 18H10.2496C10.8018 18 11.2496 17.5523 11.2496 17V16.3753C11.2496 15.823 10.8018 15.3753 10.2496 15.3753H9.62478C9.07249 15.3753 8.62478 14.9275 8.62478 14.3753V9.62481C8.62478 9.07252 9.07249 8.62481 9.62478 8.62481H10.2496C10.8018 8.62481 11.2496 8.17709 11.2496 7.62481V7C11.2496 6.44771 10.8018 6 10.2496 6H7ZM13.7504 6C13.1982 6 12.7504 6.44772 12.7504 7V7.62481C12.7504 8.17709 13.1982 8.62481 13.7504 8.62481H14.3752C14.9275 8.62481 15.3752 9.07252 15.3752 9.62481V14.3753C15.3752 14.9275 14.9275 15.3753 14.3752 15.3753H13.7504C13.1982 15.3753 12.7504 15.823 12.7504 16.3753V17C12.7504 17.5523 13.1982 18 13.7504 18H17C17.5523 18 18 17.5523 18 17V7C18 6.44772 17.5523 6 17 6H13.7504Z" fill="#424242"/>
<defs>
<radialGradient id="paint0_radial_1_130" cx="0" cy="0" r="1" gradientUnits="userSpaceOnUse" gradientTransform="translate(12 1) rotate(90) scale(11)">
<stop stop-color="#6EBBF7"/>
<stop offset="1" stop-color="#2196F3"/>
</radialGradient>
<linearGradient id="paint1_linear_1_130" x1="12" y1="3" x2="12" y2="21" gradientUnits="userSpaceOnUse">
<stop stop-color="#FAFAFA"/>
<stop offset="1" stop-color="#CCCCCC"/>
</linearGradient>
</defs>
</svg>

<svg xmlns="http://www.w3.org/2000/svg" width="24" height="24" fill="none"><path fill="url(#a)" fill-rule="evenodd" d="M9.596 1.114c.12 0 .234-.014.344-.046a31.627 31.627 0 0 1 4.307.011c1.301.102 2.561.384 3.78.848 2.025.833 3.412 2.28 4.158 4.339.427 1.24.679 2.514.756 3.824a27.94 27.94 0 0 1-.114 4.923 11.88 11.88 0 0 1-.894 3.32c-.85 1.843-2.229 3.114-4.135 3.813a15.624 15.624 0 0 1-4.765.825 21.423 21.423 0 0 1-5.453-.413c-3.312-.737-5.354-2.756-6.128-6.056a19.047 19.047 0 0 1-.447-4.511 18.491 18.491 0 0 1 .515-4.786c.812-3.086 2.77-4.998 5.877-5.736a13.953 13.953 0 0 1 2.199-.355Z" clip-rule="evenodd"/><path fill="url(#b)" fill-rule="evenodd" d="M10.314 3.055a.964.964 0 0 1-.28.038c-.608.049-1.208.146-1.8.29-2.542.605-4.144 2.169-4.808 4.694a15.129 15.129 0 0 0-.422 3.915 15.584 15.584 0 0 0 .365 3.691c.634 2.7 2.305 4.352 5.015 4.956 1.472.303 2.959.415 4.46.337a12.784 12.784 0 0 0 3.9-.674c1.56-.573 2.687-1.613 3.383-3.12.375-.87.619-1.775.731-2.717.15-1.34.181-2.682.094-4.028a11.67 11.67 0 0 0-.619-3.129c-.61-1.684-1.745-2.868-3.402-3.55-.997-.38-2.028-.61-3.093-.693a25.877 25.877 0 0 0-3.524-.01Z" clip-rule="evenodd"/><path fill="#424242" d="M7 6a1 1 0 0 0-1 1v10a1 1 0 0 0 1 1h3.25a1 1 0 0 0 1-1v-.625a1 1 0 0 0-1-1h-.625a1 1 0 0 1-1-1v-4.75a1 1 0 0 1 1-1h.625a1 1 0 0 0 1-1V7a1 1 0 0 0-1-1H7Zm6.75 0a1 1 0 0 0-1 1v.625a1 1 0 0 0 1 1h.625a1 1 0 0 1 1 1v4.75a1 1 0 0 1-1 1h-.625a1 1 0 0 0-1 1V17a1 1 0 0 0 1 1H17a1 1 0 0 0 1-1V7a1 1 0 0 0-1-1h-3.25Z"/><defs><radialGradient id="a" cx="0" cy="0" r="1" gradientTransform="matrix(0 11 -11 0 12 1)" gradientUnits="userSpaceOnUse"><stop stop-color="#6EBBF7"/><stop offset="1" stop-color="#2196F3"/></radialGradient><linearGradient id="b" x1="12" x2="12" y1="3" y2="21" gradientUnits="userSpaceOnUse"><stop stop-color="#FAFAFA"/><stop offset="1" stop-color="#CCC"/></linearGradient></defs></svg>
